!!!!SEGMENT: pl-wn--sd-xvi-qu-273--047_gomolka-mikolaj--kleszczmy-rekoma-wszyscy-zgodliwie.krn
!!!cenid: 15xx:252
!!!COM: Gomółka, Mikołaj
!!!COM-rismid: pe30013343
!!!CDT: ~1535->1591/04/30
!!!CNT: Polish
!!!GTL: Melodiae na psalterz polski
!!!OTL: XLVII. Kleszczmy rękoma wszyscy zgodliwie,
!!!PDT: 1580
!!!AGN: Sacred
!!!SMS-siglum: PL-Wn
!!!SMS-shelfmark: SD XVI.Qu.273
!!!SMS-shelfwork: 047 G
!!!NIFC-rismid:
!!!ONB-nifc: Melodiae na psalterz polski
**kern	**text	**text	**kern	**text	**text	**kern	**text	**text	**kern	**text	**text
*part4	*part4	*part4	*part3	*part3	*part3	*part2	*part2	*part2	*part1	*part1	*part1
*staff4	*staff4	*staff4	*staff3	*staff3	*staff3	*staff2	*staff2	*staff2	*staff1	*staff1	*staff1
*clefF3	*	*	*clefC3	*	*	*clefC2	*	*	*clefG2	*	*
*k[b-]	*	*	*k[b-]	*	*	*k[b-]	*	*	*k[b-]	*	*
*F:	*	*	*F:	*	*	*F:	*	*	*F:	*	*
*M3/2	*	*	*M3/2	*	*	*M3/2	*	*	*M3/2	*	*
*	*	*	*	*	*	*	*	*	*	*	*
=-	=-	=-	=-	=-	=-	=-	=-	=-	=-	=-	=-
1F	Kleʃᴣcӡ-	Wʃᴣyʃ-	1f	Kleʃᴣcӡ-	Wʃᴣyʃ-	1a	Kleʃᴣcӡ-	Wʃᴣyʃ-	1cc	Kleʃᴣcӡ-	Wʃᴣyʃ-
2F/	-my	-cy	2f	-my	-cy	2a	-my	-cy	2cc	-my	-cy
=3-	=3-	=3-	=3-	=3-	=3-	=3-	=3-	=3-	=3-	=3-	=3-
1B-	rę-	śpié-	1d	rę-	śpié-	1b-	rę-	śpié-	1dd	rę-	śpié-
2B-	-ťo-	-way-	2d	-ťo-	-way-	2b-	-ťo-	-way-	2dd	-ťo-	-way-
=4-	=4-	=4-	=4-	=4-	=4-	=4-	=4-	=4-	=4-	=4-	=4-
1.c	-má	-my	1.e	-má	-my	1.g	-má	(-my)	1.cc	-má	(-my)
=5-	=5-	=5-	=5-	=5-	=5-	=5-	=5-	=5-	=5-	=5-	=5-
2.G	wʃᴣyʃ-	pá-	2.d	wʃᴣyʃ-	(pá-)	1g	wʃᴣyʃ-	pá-	1b-	wʃᴣyʃ-	pá-
4A	.	.	4c	.	.	.	.	.	.	.	.
2B-	-cy	-nu	2d	-cy	(-nu)	2f	-cy	-nu	2b-	-cy	-nu
=6-	=6-	=6-	=6-	=6-	=6-	=6-	=6-	=6-	=6-	=6-	=6-
1c	ӡgod-	chęt-	2.e	ӡgod-	chęt-	1c	ӡgod-	chęt-	1g	ӡgod-	chęt-
.	.	.	4d	.	.	.	.	.	.	.	.
2c	-li-	-li-	2e	-li-	-li-	2c	-li-	-li-	2g/	-li-	-li-
=7-	=7-	=7-	=7-	=7-	=7-	=7-	=7-	=7-	=7-	=7-	=7-
1.F	-wie/	-wie/	1.f	-wie/	-wie/	1.c	-wie/	-wie/	1.a	-wie/	-wie/
=8:!:-	=8-	=8-	=8-	=8-	=8-	=8-	=8-	=8-	=8-	=8-	=8-
2F/	Pá-	.	2a	Pá-	.	2f	Pá-	.	2cc	Pá-	.
2B-	-nu	.	2g	-nu	.	2d	-nu	.	2dd	-nu	.
2c	nád	.	2g	nád	.	2c	nád	.	2ee	nád	.
=9-	=9-	=9-	=9-	=9-	=9-	=9-	=9-	=9-	=9-	=9-	=9-
1F	pá-	.	2.f	pá-	.	1c	pá-	.	1ff	pá-	.
.	.	.	4e	.	.	.	.	.	.	.	.
2F/	-ny/	.	4d	-ny/	.	2f	-ny/	.	2ff	-ny/	.
.	.	.	4c	.	.	.	.	.	.	.	.
!!LO:PB:g=original
=10-	=10-	=10-	=10-	=10-	=10-	=10-	=10-	=10-	=10-	=10-	=10-
2.B-	pá-	.	1d	pá-	.	1f	pá-	.	1dd	pá-	.
4A	.	.	.	.	.	.	.	.	.	.	.
2G	-nu	.	2d	-nu	.	2g	-nu	.	2dd	-nu	.
=11-	=11-	=11-	=11-	=11-	=11-	=11-	=11-	=11-	=11-	=11-	=11-
!	!ź	!	!	!ź	!	!	!ź	!	!	!ź	!
4C	groӡ-	.	2c/	groӡ-	.	1g	groӡ-	.	2.gg	groӡ-	.
4D	.	.	.	.	.	.	.	.	.	.	.
4E	.	.	2c/	.	.	.	.	.	.	.	.
4F	.	.	.	.	.	.	.	.	4ff	.	.
2G	-né-	.	2B-	-né-	.	2g	-né-	.	2dd	-né-	.
=12-	=12-	=12-	=12-	=12-	=12-	=12-	=12-	=12-	=12-	=12-	=12-
1.C	-mu/	.	1.c	-mu/	.	1.g	(-mu)/	.	1.ee	-mu/	.
=13-	=13-	=13-	=13-	=13-	=13-	=13-	=13-	=13-	=13-	=13-	=13-
2F/	Kró-	.	4c	Kró-	.	2a	Kró-	.	2ff	Kró-	.
.	.	.	4d	.	.	.	.	.	.	.	.
2c	-lo-	.	2e	-lo-	.	4g	-lo-	.	2ee	-lo-	.
.	.	.	.	.	.	4a	.	.	.	.	.
2B-	-wi	.	2f	-wi	.	2b-	-wi	.	2dd	-wi	.
=14-	=14-	=14-	=14-	=14-	=14-	=14-	=14-	=14-	=14-	=14-	=14-
1A	wʃᴣe-	.	1c	wʃᴣe-	.	2f	wʃᴣe-	.	1cc	wʃᴣe-	.
.	.	.	.	.	.	4e	.	.	.	.	.
.	.	.	.	.	.	4f	.	.	.	.	.
2G	-go	.	2G	-go	.	2g	-go	.	2b-/	-go	.
=15-	=15-	=15-	=15-	=15-	=15-	=15-	=15-	=15-	=15-	=15-	=15-
2.F/	świá-	.	1A	świá-	.	1c	świá-	.	2.a	świá-	.
4E	.	.	.	.	.	.	.	.	4g	.	.
2D	-tá	.	2B-	-tá	.	2d	-tá	.	2f	-tá	.
=16-	=16-	=16-	=16-	=16-	=16-	=16-	=16-	=16-	=16-	=16-	=16-
!	!ż	!	!	!ż	!	!	!ż	!	!	!ż	!
1C	moӡ-	.	1c	moӡ-	.	2.e/	moӡ-	.	2.cc	moӡ-	.
.	.	.	.	.	.	4d	.	.	4b-/	.	.
2C	-né-	.	2c/	-né-	.	2e/	-né-	.	2g	-né-	.
=17-	=17-	=17-	=17-	=17-	=17-	=17-	=17-	=17-	=17-	=17-	=17-
!!LO:N:vis=00
!	!	!	!	!	!	!	!	!	!ogonek z lewej	!	!
1.F	-mu.	.	1.c	-mu.	.	1.f	-mu:	.	1.a/	-mu.	.
=-	=-	=-	=-	=-	=-	=-	=-	=-	=-	=-	=-
*-	*-	*-	*-	*-	*-	*-	*-	*-	*-	*-	*-
!!!RDF**kern: l = terminal long
!!!system-decoration: s1,s2,s3,s4
!!!ENC: Anna Matuszewska
!!!END:2020-02-09
!!!URL-scan: https://polona.pl/item/melodiae-na-psalterz-polski,Nzk3MTM4ODQ/119 Scan on Polona
!!!IIIF: https://polona.pl/iiif/item/Nzk3MTM4ODQ/manifest.json
